packages/icons/svg/Fill/pantone.svg

<svg fill="none" height="24" viewBox="0 0 24 24" width="24" xmlns="http://www.w3.org/2000/svg"><path clip-rule="evenodd" d="m5.00002 8.00006h3.818v-2.99999h-3.818zm0 4.99984h3.818v-2.99997h-3.818zm3.818 4.0911c0 1.053-.856 1.909-1.909 1.909s-1.909-.856-1.909-1.909v-2.091h3.818zm1.99998-13.091c0-.553-.447-1-1-1h-5.818c-.553 0-1 .447-1 1v13.091c0 2.155 1.754 3.909 3.909 3.909s3.909-1.754 3.909-3.909zm9.182 9.1815h-2.695l-1.865 2-3.559 3.818-1.415 1.518-.449.482h9.983c.553 0 1-.447 1-1v-5.818c0-.553-.447-1-1-1zm-5.9465-7.73773 4.136 3.856c.404.377.427 1.01003.05 1.41303l-6.479 6.949c.0059-.048.0125-.0958.0191-.1437.0194-.1407.0389-.2818.0389-.4273v-2.423-5.36003-2.933l.822-.882c.181-.194.432-.308.696-.317.274-.022.524.087.717.268z" fill="#6b7280" fill-rule="evenodd"/></svg>

<svg width="24" height="24" viewBox="0 0 24 24" fill="none" xmlns="http://www.w3.org/2000/svg">
<g id="Icon/Fill/pantone">
<path id="Mask" fill-rule="evenodd" clip-rule="evenodd" d="M5 8H8.818V5H5V8ZM5 13H8.818V10H5V13ZM8.818 17.091C8.818 18.144 7.962 19 6.909 19C5.856 19 5 18.144 5 17.091V15H8.818V17.091ZM10.818 4C10.818 3.447 10.371 3 9.818 3H4C3.447 3 3 3.447 3 4V17.091C3 19.246 4.754 21 6.909 21C9.064 21 10.818 19.246 10.818 17.091V4ZM20 13.1816H17.305L15.44 15.1816L11.881 18.9996L10.466 20.5176L10.017 20.9996H20C20.553 20.9996 21 20.5526 21 19.9996V14.1816C21 13.6286 20.553 13.1816 20 13.1816ZM14.0535 5.4438L18.1895 9.2998C18.5935 9.6768 18.6165 10.3098 18.2395 10.7128L11.7605 17.6618C11.7663 17.6138 11.7729 17.566 11.7796 17.5182C11.799 17.3774 11.8185 17.2363 11.8185 17.0908V14.6678V9.3078V6.3748L12.6405 5.4928C12.8215 5.2988 13.0725 5.1848 13.3365 5.1758C13.6105 5.1538 13.8605 5.2628 14.0535 5.4438Z" fill="#000000"/>
</g>
</svg>
